X:4
T:MacGregor of Ruara
D:Highland Bagpipes, Seumas MacNeill, 1970
L:1/8
M:3/4
N:Huara appears to be a misspelling of Ruara.
O:Scotland
Q:"larghissimo" 1/4=40
R:air
S:transcribed from Seumas MacNeill's recording.
V:1 clef=treble stem=down
Z:abc-transcription Kevin Griffin, Jan 1, 2019
K:AMix
%%MIDI drone 70 45 33 70 70
%%MIDI droneon
{/g}A3/2{/d}B1/2 | {/gef}e2 {/g}e2 {/g}f3/2d/ | {/g}e2 {/G}A2 {/g}A3/2{/d}B1/2 | \
{/gef}e2 {/geA}e2 {/g}f3/2e/ | {/Gdc}d2 {/e}G2 B/{/Gdc}d3/2 |!
B/{/Gdc}d3/2 {/g}e3/2d/ {/gBe}B/A3/2 | {/gAe}A/{/e}G3/2 {/g}A3/2{/d}B1/2 {/g}e3/2d/ | \
{/g}B/d3/2 {/gBe}B/{/e}G3/2 {/g}A2 | {/GdG}B2 {/G}A2 :|!
|: {/g}A3/2{/d}B1/2 | {/g}e2 {/ag}a2 g3/2e/ | {/g}e3/2d/ {/gBe}B/{/e}A3/2 {/g}A3/2{/d}B1/2 | \
{/g}e2 {/ag}a2 g/f/e/d/ | {/gf}g2 G2 B/{/Gdc}d3/2 |!
|1 B/{/Gdc}d3/2 {/g}e3/2d/ {/gBe}B/A3/2 | {/gAe}A/{/e}G3/2 {/g}A3/2{/d}B1/2 {/g}e3/2d/ | \
{/g}B/d3/2 {/gBe}B/{/e}G3/2 {/g}A2 | {/GdG}B2 {/G}A2 :|!
|2 B/{/Gdc}d3/2 {/g}ef/g/ {/Be}B/{/e}A3/2 | {/gAe}A/{/e}G3/2 {/a}g3/2f/ {/g}e3/2d/ | \
{/g}B/d3/2 {/gBe}B/{/e}G3/2 {/g}A2 | {/GdG}B2 !rbstop! {/G}A2 |]!

